brandFactory_export/2.Regular/Cerebro_2Regular.svg

<?xml version="1.0" encoding="UTF-8"?>
<svg width="24px" height="24px" viewBox="0 0 24 24" version="1.1" xmlns="http://www.w3.org/2000/svg" xmlns:xlink="http://www.w3.org/1999/xlink">
    <title>2.Regular/Cerebro_2Regular</title>
    <g id="Symbols" stroke="none" stroke-width="1" fill="none" fill-rule="evenodd">
        <g id="2.Regular/Cerebro_2Regular" fill="#5CB615" fill-rule="nonzero">
            <path d="M17.2521008,19.8621849 C17.2487395,19.8621849 17.2420168,19.8588235 17.2386555,19.8588235 C17.0369748,19.8588235 16.7546218,19.7781513 16.4689076,19.5932773 C16.1697479,19.4016807 15.9781513,19.1932773 15.9042017,18.9781513 C15.7596639,18.5613445 15.2957983,18.3394958 14.8722689,18.4806723 C14.4453782,18.6218487 14.2168067,19.0722689 14.3647059,19.4890756 C14.5596639,20.0504202 14.9663866,20.5310924 15.5781513,20.9243697 C15.7361345,21.0252101 15.897479,21.1092437 16.0554622,21.1798319 C15.6857143,21.7445378 15.087395,22.0302521 14.2403361,22.0302521 C13.1781513,22.0302521 12.7512605,20.9411765 12.6504202,20.6285714 C12.6537815,20.3563025 12.6571429,19.6840336 12.6504202,19.5193277 L12.6504202,4.10084034 C12.6504202,3.89243697 12.6571429,3.14621849 12.6605042,2.8302521 C12.7983193,2.51428571 13.2823529,1.58991597 14.2403361,1.58991597 C15.0941176,1.58991597 15.6823529,1.86554622 16.0487395,2.4302521 C15.2554622,2.80672269 14.7210084,3.52268908 14.4722689,4.21512605 L14.3983193,4.43361345 L15.9512605,4.90756303 L16.005042,4.74285714 C16.1394958,4.37310924 16.4722689,3.76806723 17.2352941,3.75798319 L17.2453782,3.75798319 C20.6605042,3.75798319 21.0302521,6.82689076 21.0302521,8.14789916 C21.0302521,8.51764706 20.9798319,9.61344538 20.512605,10.6151261 C19.9714286,10.2756303 19.4,10.0806723 18.8789916,9.98319328 C18.9193277,9.43865546 18.6941176,8.92436975 18.3277311,8.54789916 C18.3243697,8.54453782 18.2470588,8.46386555 18.2436975,8.4605042 C17.9344538,8.14117647 17.4571429,8.16806723 17.1310924,8.47058824 C16.805042,8.77310924 16.8285714,9.31428571 17.1378151,9.6302521 C17.2487395,9.74453782 17.2722689,9.82521008 17.2487395,9.90252101 L17.2420168,9.90252101 C17.1176471,9.91596639 16.9663866,9.93277311 16.8252101,9.94957983 C16.7008403,9.96638655 16.5327731,9.99663866 16.3310924,10.0403361 C15.8941176,10.1378151 15.6218487,10.5647059 15.7226891,10.994958 C15.8235294,11.4252101 16.2672269,11.6941176 16.697479,11.589916 C16.8386555,11.5596639 16.9563025,11.5361345 17.0436975,11.5260504 C17.1613445,11.512605 17.292437,11.4957983 17.4067227,11.4857143 C17.8168067,11.4420168 19.2084034,11.3848739 20.102521,12.3159664 C20.9596639,13.4420168 21.0268908,15.0117647 21.0268908,15.4689076 C21.0369748,16.7865546 20.6705882,19.805042 17.2521008,19.8621849 M9.4302521,22.0336134 C8.59327731,22.0336134 8.01512605,21.7647059 7.64537815,21.2201681 C7.83361345,21.1428571 8.02521008,21.0487395 8.21344538,20.9277311 C8.82521008,20.5344538 9.23529412,20.0537815 9.42689076,19.492437 C9.57142857,19.0756303 9.34285714,18.6252101 8.91932773,18.4840336 C8.49243697,18.3428571 8.03193277,18.5647059 7.88739496,18.9815126 C7.81344538,19.1966387 7.62184874,19.405042 7.32268908,19.5966387 C7.03697479,19.7815126 6.76470588,19.8621849 6.55294118,19.8588235 C6.51596639,19.8554622 6.48235294,19.8689076 6.44537815,19.8722689 C6.43529412,19.8722689 6.42521008,19.8689076 6.41848739,19.8689076 C3.00336134,19.8689076 2.63361345,16.7966387 2.63361345,15.4789916 C2.63361345,15.092437 2.68739496,13.9058824 3.22184874,12.8672269 C3.4605042,12.9512605 3.71932773,13.0117647 4.00168067,13.0420168 C4.0789916,13.7815126 4.60336134,14.312605 5.23529412,14.5478992 C5.2487395,14.5546218 5.36302521,14.594958 5.37647059,14.5983193 C5.4605042,14.6285714 5.54453782,14.6386555 5.62521008,14.6386555 C5.94789916,14.6386555 6.23361345,14.4268908 6.35798319,14.1008403 C6.51260504,13.6941176 6.25042017,13.2235294 5.83697479,13.0689076 C5.68235294,13.0117647 5.62857143,12.9445378 5.61848739,12.8605042 C6.60672269,12.4537815 7.06722689,11.5226891 7.15798319,10.6655462 L7.17815126,10.4504202 C7.20168067,10.0134454 6.86218487,9.63697479 6.41176471,9.61008403 C5.94789916,9.58655462 5.57815126,9.91932773 5.5512605,10.3596639 L5.53781513,10.5042017 C5.42689076,11.5697479 4.55294118,11.492437 4.26386555,11.4756303 C3.93445378,11.4487395 3.68571429,11.3579832 3.51764706,11.2302521 C2.71092437,10.1109244 2.64033613,8.59831933 2.64033613,8.1512605 C2.64033613,6.8302521 3.01008403,3.76134454 6.51932773,3.76134454 L6.52605042,3.76134454 C7.28907563,3.76134454 7.65546218,4.37310924 7.78655462,4.7394958 L7.85042017,4.93445378 C7.96134454,5.26386555 8.27058824,5.46554622 8.60672269,5.46554622 C8.69411765,5.46554622 8.78487395,5.45210084 8.87226891,5.42184874 C9.29915966,5.28739496 9.52436975,4.81680672 9.38655462,4.4 L9.32605042,4.22184874 C9.06722689,3.49915966 8.51260504,2.7697479 7.65882353,2.40672269 C8.03193277,1.87226891 8.61344538,1.59663866 9.43697479,1.59663866 C10.4991597,1.59663866 10.9260504,2.68907563 11.0268908,2.99831933 C11.0235294,3.27058824 11.0201681,3.94285714 11.0268908,4.10756303 L11.0268908,19.5294118 C11.0268908,19.7378151 11.0201681,20.4806723 11.0168067,20.8 C10.8756303,21.1092437 10.3915966,22.0336134 9.4302521,22.0336134 M22.6638655,8.14789916 C22.6638655,5.52605042 21.3865546,2.48739496 17.7529412,2.19831933 C17.1647059,0.793277311 15.9142857,0.00336134454 14.2403361,0.00336134454 C13.0941176,0.00336134454 12.3176471,0.574789916 11.8201681,1.16302521 C11.2957983,0.534453782 10.5226891,0.00336134454 9.4302521,0.00336134454 C7.75966387,0.00336134454 6.51260504,0.789915966 5.9210084,2.18823529 C2.30756303,2.44369748 1.00672269,5.5092437 1.00672269,8.1512605 C1.00672269,8.82352941 1.10756303,10.4235294 1.9512605,11.8117647 C1.10756303,13.2033613 1.00672269,14.8067227 1.00672269,15.4789916 C1.00672269,18.1008403 2.28403361,21.1394958 5.91764706,21.4319328 C6.50588235,22.8336134 7.75630252,23.6268908 9.4302521,23.6268908 C10.5764706,23.6268908 11.3529412,23.0554622 11.8504202,22.4672269 C12.3747899,23.0957983 13.1478992,23.6268908 14.2403361,23.6268908 C15.9109244,23.6268908 17.1579832,22.8403361 17.7495798,21.4420168 C21.3663866,21.1865546 22.6638655,18.1210084 22.6638655,15.4789916 C22.6638655,14.8067227 22.5630252,13.210084 21.7193277,11.8184874 C22.5630252,10.4235294 22.6638655,8.82016807 22.6638655,8.14789916" id="Cerebro_2Regular"></path>
        </g>
    </g>
</svg>

<svg width="24" height="24" viewBox="0 0 24 24" xmlns="http://www.w3.org/2000/svg"><path d="M17.252 19.862l-.013-.003c-.202 0-.484-.08-.77-.266-.3-.191-.49-.4-.565-.615a.818.818 0 00-1.032-.497.786.786 0 00-.507 1.008c.195.561.601 1.042 1.213 1.435.158.101.32.185.477.256-.37.565-.968.85-1.815.85-1.062 0-1.489-1.089-1.59-1.401a40.46 40.46 0 000-1.11V4.101c0-.209.007-.955.01-1.27.138-.317.622-1.241 1.58-1.241.854 0 1.442.276 1.809.84-.794.377-1.328 1.093-1.577 1.785l-.074.219 1.553.474.054-.165c.134-.37.467-.975 1.23-.985h.01c3.416 0 3.785 3.069 3.785 4.39 0 .37-.05 1.465-.517 2.467a4.713 4.713 0 00-1.634-.632c.04-.544-.185-1.059-.551-1.435l-.084-.087c-.31-.32-.787-.293-1.113.01-.326.302-.302.843.007 1.16.11.114.134.194.11.272h-.006c-.124.013-.276.03-.417.047a6.644 6.644 0 00-.494.09.794.794 0 00-.608.955c.1.43.544.7.974.595.142-.03.26-.054.347-.064.117-.013.248-.03.363-.04.41-.044 1.801-.101 2.696.83.857 1.126.924 2.696.924 3.153.01 1.318-.356 4.336-3.775 4.393M9.43 22.034c-.837 0-1.415-.27-1.785-.814.189-.077.38-.171.568-.292.612-.394 1.022-.874 1.214-1.436a.791.791 0 00-.508-1.008.817.817 0 00-1.032.498c-.074.215-.265.423-.564.615-.286.185-.558.265-.77.262-.037-.004-.07.01-.108.013-.01 0-.02-.003-.027-.003-3.415 0-3.784-3.072-3.784-4.39 0-.387.053-1.573.588-2.612.239.084.497.145.78.175.077.74.601 1.27 1.233 1.506.014.007.128.047.141.05.085.03.169.04.25.04.322 0 .608-.211.732-.537.155-.407-.108-.877-.521-1.032-.155-.057-.208-.124-.219-.208.989-.407 1.45-1.338 1.54-2.195l.02-.216a.806.806 0 00-.766-.84.801.801 0 00-.86.75l-.014.144c-.111 1.066-.985.988-1.274.972-.33-.027-.578-.118-.746-.246-.807-1.12-.878-2.632-.878-3.079 0-1.32.37-4.39 3.88-4.39h.006c.763 0 1.13.612 1.26.978l.064.195c.111.33.42.532.757.532a.814.814 0 00.265-.044.81.81 0 00.515-1.022l-.06-.178c-.26-.723-.814-1.452-1.668-1.815.373-.535.954-.81 1.778-.81 1.062 0 1.49 1.092 1.59 1.401-.003.273-.007.945 0 1.11v15.421c0 .209-.007.952-.01 1.271-.141.31-.625 1.234-1.587 1.234M22.664 8.148c0-2.622-1.277-5.66-4.911-5.95C17.165.793 15.914.003 14.24.003c-1.146 0-1.922.572-2.42 1.16-.524-.629-1.297-1.16-2.39-1.16-1.67 0-2.917.787-3.509 2.185-3.613.256-4.914 3.321-4.914 5.963 0 .673.1 2.273.944 3.66-.843 1.392-.944 2.996-.944 3.668 0 2.622 1.277 5.66 4.91 5.953.589 1.402 1.84 2.195 3.513 2.195 1.146 0 1.923-.572 2.42-1.16.525.629 1.298 1.16 2.39 1.16 1.67 0 2.918-.787 3.51-2.185 3.616-.255 4.914-3.321 4.914-5.963 0-.672-.101-2.269-.945-3.66.844-1.395.945-2.999.945-3.671" fill="#5CB615" fill-rule="nonzero"/></svg>
